X:89
T: Einst stand ich auf hohen Bergen (1-13), S. 34
N: K0089
O: Luxemburg
S: KINTZELE, Guillaume: An der Ucht, Bd. 1, Luxemburg 1926]
N: in der Quelle mit einer 2. Stimme versehen
R: verbotene Liebe, Gang ins Kloster]
M: 3/4
L: 1/8
K: G
DD | G3DD2 | B,2D2B2 | B2A2
DD | D2F2A2 | e2d2c2 | B4
Bc | d3ddd | d2c2B2 | B2A2
DD | D2F2A2 | e2d2c2 | B4
Bc | d3ddd | d2c2B2 | B2A2
DD | D2F2A2 | c2B2A2 | G4

@@@ Tune index: 8143
